X: 19
T:Fermoy Lasses, The
M:C|
R:reel
K:G
GE~E2 BE~E2|GFGA ~B3A|GE~E2 BE~E2|AFDF AcBA|
GE~E2 BE~E2|GFGA ~B3A|~G3F GBdB|AFDF AcBA:|
|:G2BG dGBG|~G2Bd efg2|G2BG dGBG|AFDF AcBA|
G2BG dGBG|~G2Bd efg2|af (3gfe dedB|AFDF AcBA:|

